X:1
T:Title
%%score [ ( 1 2 ) ( 3 4 ) ] { ( 5 6 7 ) | ( 8 9 ) }
L:1/8
Q:1/4=120
M:4/4
K:A
V:1 treble nm="Midi_74"
V:2 treble 
V:3 bass nm="Midi_74"
V:4 bass 
V:5 treble nm="Org."
V:6 treble 
V:7 treble 
V:8 bass 
V:9 bass 
V:1
 A8 | B4 (c2 d2) | e8 ||"^Double counterpoint" c8 | d4 f4 | e4 d4 | c8 || c8 | B4 A4 | G8 || A8 | %11
 F4 D4 |"^William Henry Havergal\n(1793-1870)" E4 G4 | A8 |] %14
V:2
 A8 | G4 A4 | E8 || E8 | A4 A4 | (A2 E2) E4 | E8 || A8 | G4 F4 | ^E8 || =E8 | D4 D4 | C4 (E2 D2) | %13
 C8 |] %14
V:3
 E8 | E4 E4 | B,8 || A,8 | A,4 D4 | C4 B,4 | A,8 || (C6 F2) | ^E4 F4 | C8 || A,8 | A,4 A,4 | %12
 C4 B,4 | A,8 |] %14
V:4
 C8 | B,4 A,4 | G,8 || A,8 | F,4 D,4 | E,4 G,4 | A,8 || F,8 | G,4 (A,2 B,2) | C8 || C,8 | D,4 F,4 | %12
 E,4 E,4 | A,,8 |] %14
V:5
 A8 | [GB]4 c2 d2 | [Be]8 || [Ac]8 | d4 f4 | e4 d4 | c8 || c8 | B4 A4 | G8 || A8 | F4 D4 | E4 G4 | %13
 A8 |] %14
V:6
 x8 | x4 A4 | x8 || x8 | x8 | x8 | x8 || x8 | x8 | x8 || x8 | x8 | x8 | x8 |] %14
V:7
 E8 | E8 | E8 || E8 | A4 [Ad]4 | [Ac]4 [EB]4 | [EA]8 || [FA]8 | [^EG]4 F4 | ^E8 || =E8 | D4 D4 | %12
 C4 E2 D2 | C8 |] %14
V:8
 x8 | x8 | x8 || x8 | x8 | x8 | x8 || x8 | x8 | x8 || A,8 | A,8 | x4 B,4 | A,8 |] %14
V:9
 C8 | B,4 A,4 | G,8 || A,8 | F,4 D,4 | E,4 G,4 | A,8 || F,8 | G,4 A,2 B,2 | C8 || C,8 | D,4 F,4 | %12
 E,4 E,4 | A,,8 |] %14

